X:1
T:At Christmas Time
T:At Christmas Time
T:Daniel Bliss Towner
T:M. Alice Metcalf, 1899
T:Public Domain Courtesy of the Cyber Hymnal™
C:Daniel Bliss Towner
Z:Public Domain
Z:Courtesy of the Cyber Hymnal™
%%score ( 1 2 ) ( 3 4 )
L:1/8
Q:1/4=95
M:6/8
K:D
V:1 treble 
V:2 treble 
V:3 bass 
V:4 bass 
V:1
 [FA]>[GB][FA] [DF]2 [A,D] | [CE]2 [CF] D3 | [Fd]>[Ge][Fd] [FA]2 [DF] | [CE]2 [CA] [DF]2 [DF] | %4
w: 1.~Give and for- give at|Christ- mas time;|Live and let live at|Christ- mas time; Tho’|
w: 2.~Give and for- give at|Christ- mas time;|Live and let live at|Christ- mas time; The|
w: 3.~Live and let live at|Christ- mas time;|Give and for- give at|Christ- mas time; Tho’|
w: 4.~Live and let live at|Christ- mas time;|Give and for- give at|Christ- mas time; For|
w: 5.~Give and for- give at|Christ- mas time;|Live and let live at|Christ- mas time; Till|
w: 6.~Give and for- give at|Christ- mas time;|Live and let live at|Christ- mas time; From|
 [EG]2 [FA] ([EG][CE])[CE] | [DF]2 [GB] [FA]2 [FA] | [EG]2 [EA] ([EG][DF])[CE] | %7
w: all the world * be|wrapped in night, The|stars a- bove * are|
w: dark- ness yields * at|last to light, And|wrong will be * con-|
w: bit- ter- ness * has|cast its blight, Let|truth and love * our|
w: all the world * must|own His might, Who|came to bless * man-|
w: through the year * shall|shine the light That|glor- i- fied * the|
w: deep- est depth * and|high- est height, Be|praise to God * and|
 ([DF][Fd])[GB] [FA]2 [DF] | [CE]2 [CA] [DF]2 [Fd] | (cB)[Gc] !fermata![Fd]3 |] %10
w: shin- * ing bright, At|Christ- mas time, at|Christ- * mas time.|
w: quered * by right, At|Christ- mas time, at|Christ- * mas time.|
w: hearts * u- nite, At|Christ- mas time, at|Christ- * mas time.|
w: kind * with light, At|Christ- mas time, at|Christ- * mas time.|
w: ho- * ly night, At|Christ- mas time, at|Christ- * mas time.|
w: glo- * ry bright; At|Christ- mas time, at|Christ- * mas time.|
V:2
 x6 | x3 D3 | x6 | x6 | x6 | x6 | x6 | x6 | x6 | G2 x4 |] %10
V:3
 [D,D]>[D,D][D,D] [D,A,]2 [D,F,] | [A,,G,]2 [A,,A,] [D,F,]3 | [D,A,]>[D,A,][D,A,] [D,D]2 [D,A,] | %3
 [A,,G,]2 [A,,E,] D,2 [D,A,] | [A,,A,]2 [A,,A,] [A,,A,]2 [A,,A,] | [D,A,]2 [D,D] [D,D]2 [D,D] | %6
 [A,,C]2 [A,,C] [A,,A,]2 [A,,A,] | [D,A,]2 [D,D] [D,D]2 [D,A,] | [A,,G,]2 [A,,E,] D,2 [D,A,] | %9
 A,2 A, !fermata![D,A,]3 |] %10
V:4
 x6 | x6 | x6 | x3 D,2 x | x6 | x6 | x6 | x6 | x3 D,2 x | A,2 A, x3 |] %10

